X:1
T:Het viel een hemels douwe
T:Het viel een Hemels douwe
T:Jef Tinel (1885 - 1972)
T:Ad van de Wege
T:Ad van de Wege
T:Ad van de Wege
C:Jef Tinel (1885 - 1972)
Z:Ad van de Wege
%%score { ( 1 5 7 ) | ( 2 3 ) | ( 4 6 ) }
L:1/8
Q:1/4=52
M:4/4
K:Bb
V:1 treble nm="Orgel" snm="Org."
V:5 treble 
V:7 treble 
V:2 bass 
V:3 bass 
V:4 bass 
V:6 bass 
V:1
"^Lento""_I  cf" (G2 | G2 A2 B2 c2 | d4 B2 d2 | c2 B2 A2 A2) | (G4 G2) (G2 | G2 A2 B2 c2 | %6
 d4 B2 d2 | c2 B2 A2 A2 | (G4 G2)) (B2 | F2 F2 G2 G2 | F4 D2 F2 | GABc d2 c2 | (B4 B2)) (B2 | %13
 F2 F2 G2 G2 | F4 D2 D2 |"^Rit. ------------------------" =E^FGA B2 A2 | G4 !fermata!G2) z2 | %17
 z4 z2"_I" [EG]2 | G2 A2 B2 c2 | d4 B2 e2 | g2 f2 d2 f2 | e2 d2 c3 d | B4 A2 G2 | F2 E2 D2 z2 | %24
 d2 c2 B2 A2 | B2 =f2 g2 f2 | e2 d2 e2 dc | B6 A2 | G2 FE D2 F2 | d2 B2 e2 B2 | d2 c2 B2 c2 | %31
 e4 d2 f2 | d2 e2 c2 F2 | d2 B2 e2 B2 | d2 c2 B2 A2 | BAG^F =E2 F2 | (G4 G2) A2 | d4 B2 d2 | %38
"^Rit. ---------------------------" c2 B2 A4 | (([=B,DG=B]4 !fermata![B,DGB])) z z2 | z8 | %41
 D4 G2 A2 | B4 G2 B2 | A2 G4 F2 | G2 FE D2 C2 | D2 E2 G2 A2 | B4 G2 B2 | A2 G4 F2 | (G4 G2) F2 | %49
 F[df][ce][Bd] [Ac][GB][FA][EG] | [DF][EA][FB][Ac] [Bd][Ac][Bd][ce] | %51
 [df][eg][df][ce] [Bd][df][ce][eg] | [Bdf][Bb][eg][Bb] [df][DF][EG][GB] | %53
 [Bd][df][ce][Bd] [Ac][GB][FA][EG] | [DF][EA][FB][Ad] [Bd][Ac][GB][Ac] | (d4 d2) z2 | %56
"^Rit. ---------------------------" [Bd][Gg][ce][Gg] [Bd][Ac][GB][Ac] | %57
 ([DGd]4 !fermata![DGd]) z x2 |] %58
V:2
"_II" B,C | D4 (G4 | G2) F2 G2 F2 | E2 D2 G2 (F2 | F2) E2 D2 B,C | D4 F2 E2 | D2 E2 F4 | %7
 E2 D2 C2 DC | B,2 E2 D2 D2 | F2 D2 E4 | DEDC B,2 F2 | F2 E2[K:treble] FBAG | FGFE D2 D2 | %13
 F2 D2 E4 | DEDC B,2 D2 | D3 G G2 ^F2 | D4 !fermata!D2 z2 |[K:bass] z8 | z4 z2"_II cf" (G,2 | %19
 G,2) A,2 B,2 C2 | D4 B,2 D2 | C2 B,2 A,2 A,2 | ((G,8 | (G,4)) G,2) (G,2 | G,2 A,2 B,2 C2) | %25
 D4 B,2 D2 | C2 B,2 A,2 A,2 | (G,8 | (G,4) G,2) (B,2 | F,2 F,2 G,2 G,2 | F,4 D,2 F,2 | %31
 G,A,B,C D2 C2 | (B,4) B,2) (B,2 | F,2) F,2 G,2 G,2 | F,4 D,2 D,2 | (=E,^F,)G,A, B,2 A,2 | (G,8 | %37
 (G,8) | (G,8) | (G,4) G,) z G,2 | G,2 A,2 B,2 C2 | D2 C2 [B,D]2 [A,C]2 | %42
 [G,B,]2 [F,A,]2 [E,G,]2 [D,F,]2 | G,2 B,2 A,4 | G,4 G,2 A,2 | B,2 C2 D2 C2 | B,2 A,2 G,2 F,2 | %47
 G,2 B,2 A,4 | G,2 A,2 B,2 F,E, | [B,,D,]2 [C,E,][D,F,] [E,G,][F,A,][G,B,][A,C] | %50
 [B,D][F,C][D,B,][E,G,] [D,F,][E,G,][D,F,][C,E,] | %51
 [B,,D,][A,,C,][G,,B,,][A,,C,] [B,,D,][C,E,][D,F,][E,G,] | F,G,A,G, F,2 B,G, | %53
 [D,F,][B,,D,][C,E,][D,F,] [E,G,][F,A,][G,B,][A,C] | %54
 [B,D][F,C][D,B,][E,G,] [D,F,][E,G,][D,F,][C,E,] | D,4 D,D,=E,^F, | G,B,A,G, F,E,D,E, | %57
 ([G,,D,=B,]4 [G,,D,B,]) z x2 |] %58
V:3
 G,A, | B,2 A,2 G,2 A,2 | B,2 A,2 G,2 B,2 | A,2 B,2 E2 DC | B,2 A,2 B,2 (G,2 | G,2) F,2 G,2 A,2 | %6
 B,4 F,2 (G,2 | G,2) F,2 G,2 F,2 | G,2 A,2 B,2 B,2 | DCB,A, G,A,B,C | DCB,A, G,2 B,2 | %11
 B,A,G,A,[K:treble] B,DFE | DEDC B,2 B,2 | DCB,A, G,A,B,C | DCB,A, G,2 B,2 | C2 B,E DB,D(C | %16
 C2) B,A, B,2 x2 |[K:bass] x8 | x8 | x8 | x8 | x8 | x8 | x8 | x8 | x8 | x8 | x8 | x8 | x8 | x8 | %31
 x8 | x8 | x8 | x8 | x8 | x8 | x8 | x8 | x8 | x8 | x8 | x8 | E,2 D,2 C,2 D,2 | E,2 C,2 G,,2 x2 | %45
 x4 B,2 A,2 | G,2 F,2 E,2 D,2 | E,2 D,2 C,2 D,2 | E,2 C,2 G,,2 D,C, | x8 | x8 | x8 | %52
 (B,,4 B,,2) G,E, | x8 | x8 | B,,2 A,,2 G,,D,,=E,,^F,, | G,,8 | x8 |] %58
V:4
"_Ped." (G,2 | G,2) F,2 E,4 | D,4 E,2 D,2 | F,2 G,2 C,2 D,2 | E,2 C,2 G,,2 G,,A,, | %5
 B,,2 A,,2 G,,2 F,,2 | B,,2 C,2 D,2 B,,2 | C,2 D,2 E,2 D,2 | E,2 C,2 G,,2 (B,2 | %9
 B,)A,G,F, E,F,G,A, | B,C F,2 G,2 D,2 | E,4 F,4 | (B,4 B,2) (B,2 | B,)A,G,F, E,F,G,A, | %14
 B,C F,2 G,2 B,2 | A,2 G,C, D,4 | (G,,4 !fermata!G,,2) G,,2 | G,,2 A,,2 B,,2 C,2 | %18
 D,2 C,2 B,,2 A,,2 | G,,2 D,2 E,2 C,2 | F,4 G,2 =B,,2 | C,2 D,2 E,2 D,2 | E,2 D,2 C,2 x2 | %23
 C,4 G,,2 z2 | z4 z2 D,2 | G,2 F,2 E,2 F,2 | ^F,2 G,2 C,2 D,2 | E,2 B,,2 C,2 E,2 | %28
 D,2 C,2 G,,2 D,2 | (B,,8 | B,,2) A,,2 G,,2 F,2 | E,F,G,A, B,2 F,2 | G,2 C,2 E,2 D,C, | (B,,8 | %34
 B,,2) A,,2 G,,2 D,2 | ^C,D,=E,^F, G,2 D,2 | G,,8 | G,2 F,2 D,2 B,,2 | E,2 D,2 E,2 C,2 | %39
 (G,,4 G,,) z z2 | z4 z2"_cf" (G,2 | G,2 A,2 B,2 C2 | D4 B,2 D2 | C2) B,2 A,2 A,2 | %44
 (G,4 G,2) (G,2 | G,2) A,2 B,2 C2 | D4 B,2 D2 | C2 B,2 A,2 A,2 | ((G,4 G,2)) (B,2 | %49
 F,2 F,2 G,2 G,2 | F,4 D,2 F,2 | G,A,B,C D2) C2 | (B,4 B,2) (B,2 | F,2 F,2 G,2 G,2 | F,4 D,2 D,2 | %55
 =E,^F,G,A, B,2 A,2 | (G,8 | (G,4)) G,) z x2 |] %58
V:5
 x2 | x8 | x8 | x8 | x8 | x8 | x8 | x8 | x8 | x8 | x8 | x8 | x8 | x8 | x8 | x8 | x8 | x8 | %18
 B,2 D2 G4 | B2 ^F2 G4 | B6 _A2 | G6 ^F2 | G2 F2 E2 D2 | D2 CA, B,2 x2 | B2 A2 G2 ^F2 | G2 B2 B4 | %26
 A2 B2 G2 ^F2 | G2 D2 E2 C2 | B,2 DC B,2 F2 | D4 E4 | D6 A2 | E3 F F2 A2 | B2 (G2 G2) FE | D4 E4 | %34
 D6 ^F2 | G^F=E(D D2) C2 | [B,G]2 [CA]2 [DB]2 [Ec]2 | D4 (G4 | (G4) G4) | x8 | x8 | (D8 | %42
 D4) E2 F2 | C2 D2 E2 DC | B,2 DC B,2 C2 | D2 E2 (D4 | D4) E2 F2 | C2 D2 E2 DC | B,2 E2 D2 F2 | %49
 x8 | x8 | x8 | x8 | x8 | x8 | B2 A2 G2 x2 | x8 | x8 |] %58
V:6
 x2 | x8 | x8 | x8 | x8 | x8 | x8 | x8 | x8 | x8 | x8 | x8 | x8 | x8 | x8 | x8 | x8 | x8 | x8 | %19
 x8 | x8 | x8 | x6 B,,2 | x8 | x8 | x8 | x8 | x8 | x8 | x8 | x8 | x8 | x8 | x8 | x8 | x8 | x8 | %37
 x8 | x8 | x8 | x8 | x8 | x8 | x8 | x8 | x8 | x8 | x8 | x8 | x8 | x8 | x8 | x8 | x8 | x8 | x8 | %56
 x8 | x8 |] %58
V:7
 x2 | x8 | x8 | x8 | x8 | x8 | x8 | x8 | x8 | x8 | x8 | x8 | x8 | x8 | x8 | x8 | x8 | x8 | x8 | %19
 x8 | x8 | x8 | x8 | x8 | x8 | x8 | x8 | x8 | x8 | x8 | x8 | x8 | x8 | x8 | x8 | x8 | x8 | %37
 B2 x2 B,2 D2 | C2 D2 C2 E2 | x8 | x8 | x8 | x8 | x8 | x8 | x8 | x8 | x8 | x8 | x8 | x8 | x8 | x8 | %53
 x8 | x8 | x8 | x8 | x8 |] %58

